X:1
T:Pater noster - Paminger
T:#
%%score [ 1 { 2 | 3 } 4 ]
L:1/8
Q:1/4=300
M:none
K:F
V:1 treble nm="A" snm="A"
V:2 treble-8 nm="T" snm="T"
V:3 treble-8 
V:4 bass nm="B" snm="B"
V:1
"^Pater noster""^Leonhard Paminger\n(1495-1565)" z16 | z16 | z16 | F16 | G16 | A8 A4 A4 | %6
w: |||Pa-|ter|no- ster, qui|
 B6 A2 G8 | F16- |[M:4/2] F16 | F16 | z8 A8 | B16 | A8 (G8- | G8 F8- | F4 E2 D2 E8) | F16 | %16
w: es in coe-|lis,|||qui|es|in coe\-|||lis:|
 A8 G4 A4 | B16 | A8 z4 G4 | A4 B4 G4 z4 | z16 | z4 E4 D4 E4 | F8 E8- | E8 z8 | D8 E8 | F8 E8 | %26
w: San- cti- fi-|ce-|tur no-|men tu- um,||san- cti- fi-|ce- tur||no- men|tu- um,|
 z4 c8 A4 | (B12 A2 G2 | B8) F8 | z4 D4 F4 F4 | F8 z8 | z4 D4 F8- | F4 F4 F8 | (F8 G4 F4- | %34
w: no- men|tu\- * *|* um.|Ad- ve- ni-|at,|ad- ve\-|* ni- at|re\- * *|
 F4) B,4 C8 | D16 | z8 F8 | B12 B4 | G16 | G8 A8 | (G8 A8 | G4 F8 E4) | F8 A8 | A8 z4 A4 | %44
w: * gnum tu-|um,|ad-|ve- ni-|at|re- gnum|tu\- *||um. Fi-|at vo-|
 B4 A4 G8 | F8 z4 A4 | B4 A4 G8 | F16 | z16 | z8 E8 | E8 z4 E4 | F4 E4 D8 | C16- | C16 | z8 D8 | %55
w: lun- tas tu-|a, vo-|ln- tas tu-|a,||fi-|at vo-|lun- tas tu-|a,||si-|
 C4 D4 E8 | D4 F4 G8 | (F4 G8 F4) | G8 z8 | z8 z4 A4 | F4 G4 (A4 G4- | G4 F4) G4 A4 | D4 (G8 F4) | %63
w: cut in coe-|lo, et in|ter\- * *|ra,|si-|cut in coe\- *|* * lo et|in ter\- *|
 (G12 D4 | F4 G4 E8) | D16 | z16 | F8 G8 | A8 A8 | z4 B4 (c6 B2) | A4 (G8 F4) | G16 | z16 | %73
w: ||ra.||Pa- nem|no- strum|quo- ti\- *|di- a\- *|num,||
 z4 A4 A4 G4 | F16 | E16 | z4 E4 D4 E4 | F12 F4 | E8 z4 A4 | G4 E4 F8- | F4 E4 E8- | E8 z8 | %82
w: quo- ti- di-|a-|num|da no- bis|ho- di-|e, da|no- bis ho\-|* di- e.||
 z8 F8 | G8 A8- | A4 A4 A8 | A8 z4 A4- | A4 A4 G8- | G8 (F8- | F4 E2 D2 E8) | F16 | z8 F8 | G8 G8 | %92
w: Et|di- mit\-|* te no-|bis de\-|* bi- ta|* no\-||stra,|si-|cut et|
 A8 z8 | D8 E8 | E8 F8 | D8 E8- | E4 E4 E8 | z4 E8 E4 | F6 E2 D8 | E16- | E8 D8 | z16 | z8 F8 | %103
w: nos|di- mit-|ti- mus,|di- mit\-|* ti- mus|de- bi-|to- ri- bus|no\-|* stris.||Et|
 C8 E4 (E2 F2) | G8 D8- | D8 z8 | z4 F8 F4 | F6 F2 (F8 | E8 D4 F4- | F4 E2 D2 C4 E4-) | %110
w: ne nos in\- *|du- cas||in ten-|ta- ti- o\-|||
 (E2 D2 D8 C4) | D16- | D16 | z8 D8 | E12 E4 | E8 (E8 | F8) F8 | E16 | D16 | D16 | !fermata!C16 |] %121
w: |nem.||Sed|li- be-|ra nos|* a|ma-|lo.|A-|men.|
V:2
 z16 | z16 | z8 c8- | c8 d8 | e16 | e16 | z8 e8 | f12 e4 |[M:4/2][K:treble-8] d16 | c8 c8 | %10
w: ||Pa\-|* ter|no-|ster,|qui|es in|coe-|lis, qui|
 (d12 c4 | B4) A4 (G8 | F4 f8 e2 d2 | e8) d8- | d8 c8 | c16 | F8 c8 | B6 c2 (d8- | d4 c4) c8- | %19
w: es *|* in coe\-||* lis,|* in|coe-|lis: San-|cti- fi- ce\-|* * tur|
 c4 B4 c4 (d4- | d2 c2 c8 =B4) | c8 _B4 c4 | (A2 G2 A2 B2 c8-) | c8 c8 | z8 c8 | (A6 B2) (c8- | %26
w: * no- men tu\-||um, no- men|tu\- * * * *|* um,|no-|men * tu\-|
 c4 F4 c6 d2) | _e16- | e8 c8 | d12 d4 | d16 | z8 d8 | d4 d4 d8 | d8 c4 (d4- | d2 c2 B8 A4) | %35
w: |um.|* Ad-|ve- ni-|at,|ad-|ve- ni- at|re- gnum tu\-||
 B8 B8 | d12 d4 | d8 d8 | e16- | e8 f8 | e8 z4 c4 | d8 c8 | c8 z8 | f8 f4 f4 | f4 e4 d8 | %45
w: um, ad-|ve- ni-|at re-|gnum|* tu-|um, re-|gnum tu-|um.|Fi- at vo-|lun- tas tu-|
 c4 f4 f4 f4 | d4 f4 (B2 c2 d4) | d8 z4 ((d4- | d4 c2 B2 A6 B2)) | c8 c8- | c8 c8 | c4 B6 A2 (A4- | %52
w: a, vo- lun- tas|tu- a, tu\- * *|a, tu\-||a, fi\-|* at|vo- lun- tas tu\-|
 A4 G4) A8 | z4 A4 G4 A4 | (B12 A4 | G4 A4 B4 c4) | (A4 d8 c4) | d4 e8 (d4- | d4 c4 d4) e4- | %59
w: * * a,|si- cut in|coe\- *|||lo, et in|* * * ter\-|
 e2 d2 d8 ^c4 | d16- | d16 | d16 | z8 B8- | B8 c8 | d8 d8 | z4 e4 f6 e2 | d8 c8 | z16 | z8 c8- | %70
w: |ra.|||Pa\-|* nem|no- strum|quo- ti- di-|a- num,||pa\-|
 c8 d8 | e16 | e8 e8 | f12 e4 | d16 | c16 | z4 c4 B4 c4 | c2 B2 A2 G2 F4 F4 | G4 G8 F4 | G8 A8- | %80
w: * nem|no-|strum quo-|ti- di-|a-|num|da no- bis|ho\- * * * * di-|e, da no-|bis ho\-|
 A4 G4 G8 | z4 G8 F4 | G4 A4 B8- | B8 A8 | z4 c8 c4 | c8 c8- | (c4 d4 _e8- | e8) c8- | c16 | %89
w: * di- e.|Et di-|mit- te no\-|* bis|de- bi-|ta no\-||* stra,||
 z4 c4 A4 d4- | d4 c4 d8 | B8 c8 | c8 d8 | (B8 G4) c4- | c4 c4 A8 | z4 (B4 G4) c4- | c4 c4 c8 | %97
w: de- bi- ta|* no- stra,|si- cut|et nos|di\- * mit\-|* ti- mus,|di\- * mit\-|* ti- mus|
 B4 G4 c6 B2 | A8 B8 | G8 z4 c4- | c4 G4 B6 c2 | d16- | d8 c8 | z8 c8 | G8 B6 c2 | d16- | %106
w: de- bi- to- ri-|bus no-|stris. Et|* ne nos in-|du\-|* cas,|et|ne nos in-|du\-|
 d8 c4 c4- | c4 c4 c6 c2 | (c8 A4 F4 | c4 B4 c4 G4) | B8 A8 | F8 B8- | B4 B4 B8 | B8 z4 B4 | %114
w: * cas in|* ten- ta- ti-|o\- * *||* nem.|Sed li\-|* be- ra|nos, sed|
 c12 c4 | c8 (c8 | d8) d8 | c16 | B16 | B16 | !fermata!A16 |] %121
w: li- be-|ra nos|* a|ma-|lo.|A-|men.|
V:3
 F16 | G16 | A16 | A16 | z8 c8 | A4 (c8 B2 A2 | G8) c8 | z8 A8 |[M:4/2][K:treble-8] B16 | A16 | %10
w: Pa-|ter|no-|ster,|Pa-|ter no\- * *|* ster,|qui|es|in|
 G8 F8 | z16 | A8 (c8- | c4 B4) A8 | G16 | F16 | z16 | z16 | z16 | z16 | z16 | G16 | F8 G8 | A16 | %24
w: coe- lis,||qui es|* * in|coe-|lis:||||||San-|cti- fi-|ce-|
 G16 | F8 G8 | A16 | G16- | G8 A8 | B8 B8 | B16- | B16 | z8 B8 | A8 (G4 A4- | A2 G2 F8 E4) | %35
w: tur|no- men|tu-|um.|* Ad-|ve- ni-|at||re-|gnum tu\- *||
 F8 F8 | B12 B4 | G16 | G8 c8- | c4 c4 F8 | c8 (A4 F4) | (B6 A2 G8) | F8 c8 | c8 z4 c4 | d4 c4 B8 | %45
w: um, ad-|ve- ni-|at,|ad- ve-|* ni- at|re- gnum *|tu\- * *|um. Fi-|at vo-|lun- tas tu-|
 A4 c4 d4 c4 | (B4 d6 c2 B4) | A16 | z16 | z8 G8 | G8 z4 G4 | A4 G4 F8 | E16 | z4 F4 E4 F4 | %54
w: a, vo- lun- tas|tu\- * * *|a,||fi-|at vo-|lun- tas tu-|a,|si- cut in|
 G8 F8 | E4 F4 G8 | F4 A8 G4 | A4 c6 B2 A4- | A4 G4 A8 | G4 F4 E8 | D4 G4 F4 G4 | A8 G4 F4 | %62
w: coe- lo,|et in ter-|ra, et in|ter\- * * *|||ra, si- cut in|coe- lo et|
 G8 A8 | G16 | z16 | F8 G8 | A16 | A8 z8 | z4 c4 d6 c2 | B8 A8 | z16 | z4 c4 c6 B2 | A8 G4 G4 | %73
w: in ter-|ra.||Pa- nem|no-|strum|quo- ti- di-|a- num,||quo- ti- di-|a- num, quo-|
 A4 (F2 G2 A2 B2) (c4- | c4 B2 A2 B8) | c8 z4 A4 | G4 A4 (B4 A2 G2 | A2 B2 c8) B4 | c16- | c16 | %80
w: ti- di\- * * * a\-||num da|no- bis ho\- * *|* * * di-|e.||
 c16 | c8 (c4 B2 A2) | (G4 C4) D4 F4- | F4 E4 F8- | F8 z8 | (F6 G2 A2 B2 c4) | A4 F4 B8 | B8 A8 | %88
w: |Et di\- * *|mit\- * te no\-|* * bis||de\- * * * *||bi- ta|
 G16 | F8 z4 B4- | B4 A4 (B6 A2) | (G6 F2 E4 C4) | F8 F8 | G8 G8 | A8 F8 | G12 G4 | G8 z4 G4- | %97
w: no-|stra, de\-|* bi- ta *|no\- * * *|stra, si-|cut et|nos di-|mit- ti-|mus de\-|
 G4 G4 A4 G4 | F8 G8- | G8 G8 | z8 G8 | D8 F8- | F4 G4 A8- | A8 G8 | z8 z4 B4- | B4 B4 B4 B4 | %106
w: * bi- to- ri-|bus no\-|* stris.|Et|ne nos|* in du\-|* cas|in|* ten- ta- ti-|
 A16- | A16 | G8 z4 A4 | F4 G4 A4 G4- | (G2 F2 E2 D2 E8) | D16 | z8 G8 | G12 G4 | G8 G8- | G8 A8- | %116
w: o\-||nem, in|ten- ta- ti- o\-||nem.|Sed|li- be-|ra nos|* a|
 A8 (B8 | G16) | G16 | F16 | !fermata!F16 |] %121
w: * ma\-||lo.|A-|men.|
V:4
 F,16 | E,16 | (D,8 F,8- | F,4 E,4 D,8) | C,16 | z16 | z8 C,8 | D,12 C,4 |[M:4/2] B,,16 | F,16 | %10
w: Pa-|ter|no\- *||ster,||qui|es in|coe-|lis,|
 z8 F,8 | G,8 _E,8 | F,8 C,8 | C,8 D,8 | B,,8 C,8 | F,,8 z8 | F,8 E,4 F,4 | G,16 | F,12 (E,4 | %19
w: qui|es in|coe- lis,|qui es|in coe-|lis:|San- cti- fi-|ce-|tur no\-|
 F,4 G,4) E,4 (F,4- | F,2 E,2 D,2 C,2 D,8) | C,4 C,4 G,,4 C,4 | D,8 C,8 | C,4 C,4 F,8 | %24
w: * * men tu\-||um, san- cti- fi-|ce- tur|no- men tu-|
 (B,,8 C,8) | z8 C,8 | F,16 | (_E,16- | E,8 F,8) | B,,16 | z8 G,,8 | B,,12 B,,4 | B,,16 | %33
w: um, *|no-|men|tu\-||um.|Ad-|ve- ni-|at|
 D,8 E,4 (F,4- | F,2 E,2 D,4 C,8) | B,,16- | B,,16 | z8 G,,8 | C,12 C,4 | C,8 z8 | C,8 F,8 | %41
w: re- gnum tu\-||um,||ad-|ve- ni-|at|re- gnum|
 (B,,8 C,8) | F,,12 F,4- | F,8 F,8 | z16 | F,8 F,4 F,4 | G,4 D,4 G,8 | D,16 | (F,12 E,2 D,2) | %49
w: tu\- *|um. Fi\-|* at,||fi- at vo-|lun- tas tu-|a,|tu\- * *|
 C,16 | C,8 C,8 | z16 | C,8 (A,,8 | F,,8) C,8 | z4 G,,4 B,,8 | z4 D,8 C,4 | D,8 E,8 | D,4 C,8 D,4 | %58
w: a,|fi- at||vo- lun\-|* tas|tu- a,|si- cut|in coe-|lo, et in|
 (E,8 D,4 C,4- | C,4 D,4) A,,8 | z4 G,,4 D,4 G,,4 | D,8 G,,4 D,4 | (B,,4 G,,4) D,8 | G,,16 | z16 | %65
w: ter\- * *|* * ra,|si- cut in|coe- lo et|in * ter-|ra.||
 B,,16 | C,8 D,8 | D,8 z4 E,4 | F,6 E,2 D,8 | G,,4 G,4 F,8- | F,4 E,4 D,8 | C,16 | z8 C,8 | %73
w: Pa-|nem no-|strum quo-|ti- di- a-|num, quo- ti\-|* di- a-|num,|quo-|
 F,12 C,4 | D,16 | A,,16 | z16 | z8 D,8 | (C,6 D,2 E,4 F,4 | E,4) C,4 F,8- | F,4 C,4 C,8 | %81
w: ti- di-|a-|num||da|no\- * * *|* bis ho\-|* di- e.|
 z4 C,8 F,,4 | C,8 (B,,6 A,,2) | G,,8 F,,8- | F,,8 z4 F,4- | F,4 F,4 F,8- | F,8 (_E,8- | E,8 F,8) | %88
w: Et di-|mit- te *|no- bis|* de\-|* bi- ta|* no\-||
 C,16 | z16 | z16 | z16 | z8 B,,8- | B,,8 C,8 | C,8 D,8 | B,,8 C,8- | C,4 C,4 C,8 | z4 C,8 C,4 | %98
w: stra,||||si\-|* cut|et nos|di- mit\-|* ti- mus|de- bi-|
 D,6 C,2 B,,8 | C,8 C,8 | C,8 G,,8 | B,,12 B,,4 | B,,8 F,,8 | F,8 C,8 | E,6 F,2 G,8- | G,16 | %106
w: to- ri- bus|no- stris.|Et ne|nos in-|du- cas,|et ne|nos in- du\-||
 D,8 z4 F,4- | F,4 F,4 F,6 F,2 | C,8 D,8 | z16 | z8 A,,8 | B,,12 B,,4 | G,,8 G,,8- | G,,8 G,,8 | %114
w: cas in|* ten- ta- ti-|o- nem.||Sed|li- be-|ra nos,|* sed|
 C,12 C,4 | C,8 (A,,8 | D,8) B,,8 | C,16 | G,,16 | B,,16 | !fermata!F,,16 |] %121
w: li- be-|ra nos|* a|ma-|lo.|A-|men.|

